X: 39572
T: Teddy's Delight
R: strathspey
M: 4/4
K: Gmajor
d>c|"G"B>A B<d "G6"G2 G>F|"C"E>D "C6"E<G "D"D2 D>C|1 "G"B,>D G>B "C"c>B A<G|"C6"B2A2"D"A2:|2 "G"B,>D G>B "Am"c>A "D7"G<F|"G C G"G6||
G>F|"C"E>D E>G "C6"c>B A<G|"D"F>D F>A d>c B<A|"G"G>F G>B "C"e>d "C6"c<B|"D"A6 d>c|
"G"B>A B<d "G6"G2 G>F|"C"E>D "C6"E<G "D"D2 D>C|"G"B,>D G>B "Am"c>A "D7"G<F|"G C G"G6||

